icons/passport-two-color.svg

<?xml version="1.0" encoding="UTF-8"?><svg xmlns="http://www.w3.org/2000/svg" viewBox="0 0 50 50"><g id="uuid-b5153c9a-7fbf-41de-b5e8-3280ecef751f"><g><path d="M11.24,6.69V49.53h30.01V6.69H11.24Zm13.51,28.23c-6.03,0-10.92-4.89-10.92-10.92s4.89-10.92,10.92-10.92,10.92,4.89,10.92,10.92-4.89,10.92-10.92,10.92Z" fill="#ffcd00"/><path d="M40.26,4.19h-2.05V.97c0-.14-.07-.28-.18-.38-.11-.09-.25-.14-.39-.12L9.18,4.2s-.05,.02-.07,.02c-.03,0-.05,.01-.07,.02-.03,.02-.06,.04-.09,.06-.02,.02-.04,.03-.06,.05-.03,.03-.05,.06-.07,.1-.01,.02-.03,.04-.03,.06-.02,.06-.04,.12-.04,.19V48.53c0,.28,.22,.5,.5,.5h31.01c.28,0,.5-.22,.5-.5V4.69c0-.28-.22-.5-.5-.5Zm-.5,43.84H9.74V5.19h30.01V48.03Zm-2.55-43.84H16.92L37.2,1.54v2.65Z"/><path d="M24.75,12.37c-3.98,0-7.5,2.04-9.56,5.12l-.06,.1c-1.19,1.81-1.88,3.97-1.88,6.29,0,6.34,5.16,11.5,11.5,11.5s11.5-5.16,11.5-11.5-5.16-11.5-11.5-11.5Zm8.32,5.12h-4.38c-.89-1.83-2-3.2-2.82-4.06,2.93,.31,5.49,1.84,7.2,4.06Zm-8.42,16.56c-.78-.73-2.21-2.29-3.26-4.55h6.51c-1.04,2.27-2.48,3.82-3.26,4.55Zm-3.67-5.55c-.49-1.31-.82-2.81-.84-4.5h9.01c-.02,1.69-.35,3.19-.84,4.5h-7.34Zm-6.73-4.5h4.89c.02,1.67,.32,3.18,.78,4.5h-4.59c-.67-1.36-1.06-2.89-1.08-4.5Zm10.4-10.37c.7,.66,1.92,1.97,2.92,3.86h-5.83c1-1.89,2.22-3.21,2.92-3.86Zm3.39,4.86c.56,1.29,.98,2.8,1.08,4.5h-8.95c.11-1.71,.53-3.21,1.08-4.5h6.79Zm-8.87,4.5h-4.89c.14-1.64,.65-3.16,1.46-4.5h4.43c-.52,1.31-.9,2.82-1,4.5Zm10.98,1h5.09c-.02,1.62-.41,3.14-1.08,4.5h-4.78c.45-1.33,.76-2.83,.78-4.5Zm-.03-1c-.1-1.69-.47-3.19-1-4.5h4.62c.8,1.34,1.32,2.87,1.46,4.5h-5.08Zm-6.73-9.53c-.82,.86-1.91,2.22-2.79,4.03h-4.19c1.66-2.16,4.14-3.66,6.98-4.03Zm-7.51,16.03h4.41c.94,2.21,2.25,3.83,3.17,4.79-3.19-.39-5.93-2.2-7.58-4.79Zm9.91,4.82c.92-.96,2.25-2.59,3.2-4.82h4.6c-1.69,2.65-4.52,4.49-7.8,4.82Z"/><path d="M31.61,40.27h-13.71c-.28,0-.5,.22-.5,.5s.22,.5,.5,.5h13.71c.28,0,.5-.22,.5-.5s-.22-.5-.5-.5Z"/></g></g><g id="uuid-164df713-b7fd-41c0-80d8-af6e708d4d92"><text transform="translate(.38 54.96)" font-family="Roboto-Regular, Roboto" font-size="6"><tspan x="0" y="0">passpo</tspan><tspan x="19.61" y="0" letter-spacing=".02em">r</tspan><tspan x="21.78" y="0">t</tspan></text></g></svg>

<svg xmlns="http://www.w3.org/2000/svg" viewBox="0 0 50 50"><g id="aa9af6f1-ee47-4ba1-bc1d-1ebeac637762" data-name="ICONS"><path d="M11.24,6.69V49.53h30V6.69ZM24.75,34.92A10.92,10.92,0,1,1,35.67,24,10.92,10.92,0,0,1,24.75,34.92Z" fill="#fdd600"/><path d="M40.26,4.19H38.2V1A.56.56,0,0,0,38,.59a.53.53,0,0,0-.4-.12L9.18,4.2l-.08,0L9,4.24l-.09.06-.06,0a.36.36,0,0,0-.07.1.33.33,0,0,0,0,.06.53.53,0,0,0,0,.18V48.53a.5.5,0,0,0,.5.5h31a.5.5,0,0,0,.5-.5V4.69A.51.51,0,0,0,40.26,4.19ZM39.76,48h-30V5.19h30ZM37.2,4.19H16.92L37.2,1.54Z" fill="#231f20"/><path d="M24.75,12.37a11.5,11.5,0,0,0-9.56,5.12l-.06.1a11.49,11.49,0,1,0,9.62-5.22Zm8.32,5.12H28.69a16.17,16.17,0,0,0-2.82-4A10.45,10.45,0,0,1,33.07,17.49ZM24.65,34.06A15.05,15.05,0,0,1,21.4,29.5h6.51A15,15,0,0,1,24.65,34.06ZM21,28.5a13.21,13.21,0,0,1-.84-4.5h9a13.21,13.21,0,0,1-.84,4.5ZM14.25,24h4.9a14.45,14.45,0,0,0,.77,4.5H15.34A10.33,10.33,0,0,1,14.25,24Zm10.4-10.37a15.13,15.13,0,0,1,2.92,3.86H21.74A15.38,15.38,0,0,1,24.65,13.63Zm3.4,4.86A13.46,13.46,0,0,1,29.13,23H20.18a13.22,13.22,0,0,1,1.08-4.51ZM19.18,23H14.29a10.4,10.4,0,0,1,1.46-4.51h4.42A14.52,14.52,0,0,0,19.18,23Zm11,1h5.09a10.33,10.33,0,0,1-1.09,4.5H29.39A14.45,14.45,0,0,0,30.16,24Zm0-1a14.52,14.52,0,0,0-1-4.51h4.61A10.4,10.4,0,0,1,35.21,23Zm-6.72-9.53a16,16,0,0,0-2.79,4H16.43A10.47,10.47,0,0,1,23.41,13.47Zm-7.51,16h4.41a16,16,0,0,0,3.17,4.79A10.46,10.46,0,0,1,15.9,29.5Zm9.9,4.83A16,16,0,0,0,29,29.5h4.6A10.51,10.51,0,0,1,25.8,34.33Z" fill="#231f20"/><path d="M31.61,40.27H17.89a.51.51,0,0,0-.5.5.5.5,0,0,0,.5.5H31.61a.5.5,0,0,0,.5-.5A.51.51,0,0,0,31.61,40.27Z" fill="#231f20"/></g><g id="ad5e08c5-bc5d-49cd-9b67-5d34620d959a" data-name="LABELS"><text transform="translate(0.38 54.96)" font-size="6" fill="#231f20" font-family="Roboto-Regular, Roboto">passpo<tspan x="19.61" y="0" letter-spacing="0.02em">r</tspan><tspan x="21.78" y="0">t</tspan></text></g></svg>
